X: 32715
T: Polka With Teeth
R: polka
M: 2/4
K: Gminor
|:GB/c/ dd|c/B/A/G/ F2|DF/G/ AB-|BA BA|
GB/c/ dd|c/B/A/G/ F2|DF/G/ A B-|BA G2:|
|:cB/A/ Gc|B/A/G F2|DF/G/ AB-|BA BA|
cB/A/ Gc|B/A/G F2|DF/G/ AB-|BA G2:|

